X:1
T:Title
%%score ( 1 2 ) 3
L:1/8
Q:1/4=100
M:6/8
K:F
V:1 treble nm="Grand Piano, Piano"
V:2 treble 
V:3 bass nm="Grand Piano, Piano"
V:1
 [FA]2 [FB] [FA]2 [EG] | [DF]2 D [B,D]3 | C2 [CF] F2 [FA] | [FA]3 [EG]3 | [FA]2 [FB] [FA]2 [EG] | %5
w: 1.~Je sus,~ keep~ me~|near~ the~ cross,~|There~ a~ pre cious~|foun tain;~|Free~ to~ all,~ a~|
 [DF]2 D z2 B, | [A,C]2 [CF] [CF]2 [CE] | [CG]3 [CF]3 | [FA]2 [Fc] [Fc]3 | [FB]2 [Bd] [Bd]3 | %10
w: heal ing~ *|Flows~ from~ Cal v'ry's~|moun tain.~|In~ the~ cross,~|in~ the~ cross~|
 [Ac]2 [Bd] [Ac]2 [FA] | [FA]3 [EG]3 | [CA]2 [DB] [CA]2 [^CG] | [DF]2 [B,D] [B,D]3 | %14
w: Be~ my~ glo ry~|e ver,~|Till~ my~ ran somed~|soul~ shall~ find~|
 [A,C]2 [CF] [CF]2 [CE] | [CG]3 [CF]3 |] %16
w: Rest~ be yond~ the~|ri ver.~|
V:2
 x6 | x6 | x6 | x6 | x6 | z3 D3 | x6 | x6 | x6 | x6 | x6 | x6 | x6 | x6 | x6 | x6 |] %16
V:3
 [F,C]2 [F,D] [F,C]2 [C,B,] | [D,A,]2 [B,,B,] [B,,F,]3 | [F,A,]2 [F,A,] [A,C]2 [F,C] | %3
 [C,C]3 [C,C]3 | [F,C]2 [F,D] [F,C]2 [C,B,] | [D,A,]2 [B,,B,] [B,,F,]3 | %6
 [C,F,]2 [C,A,] [C,A,]2 [C,G,] | [C,B,]3 [F,A,]3 | [F,C]2 [F,A,] [F,A,]3 | [B,D]2 [B,F] [B,F]3 | %10
 [F,F]2 [F,F][K:bass] [F,F]2 [F,C] | [C,C]3 [C,C]3 | F,2 F, F,2 [A,,E,] | %13
 [B,,D,]2 [B,,F,] [B,,F,]3 | [C,F,]2 [C,A,] [C,A,]2 [C,G,] | [C,B,]3 [F,A,]3 |] %16

